X:1
T:The Millstream
C:Trad.
D:Lúnasa, "Sé", 2006
R:Reel
M:2/2
K:A
| e2cA BAEA | eAcA dcdf | eAcA BEE/E/E | BcBc ABcd |
  e2cA BAEA | eAcA dcdB | AcBd cef/g/a | gedB ABcA ||
  B2ef gedB | Aaag a2ba | gaba gedB | AcBc ABcA |
  B2ef gedB | Aaag a2ba | gaba gedB | AcBc ABcd |